Origami/64x64/apps/choqok.svg

<svg width="64" height="64" version="1.1" viewBox="0 0 64 64" xmlns="http://www.w3.org/2000/svg">
 <path d="M 32,4 29.333334,7.2 26,6 24.416666,9.0418 C 18.2748,10.3056 13.93504,13.274 10.338547,17.9662 4.0479734,26.1732 4,40.3334 4,48.3334 4,56.3332 18.666666,59 32,59 45.333334,59 60,56.3332 60,48.3334 60,40.3334 59.952,26.1732 53.661454,17.9662 50.06496,13.2738 45.7252,10.3056 39.583334,9.0416 L 38,6 34.666666,7.2 Z" style="opacity:.2"/>
 <path d="M 32,3 29.333334,6.2 26,5 24.416666,8.0418 C 18.2748,9.3056 13.93504,12.274 10.338547,16.9662 4.0479734,25.1732 4,39.3334 4,47.3334 4,55.3332 18.666666,58 32,58 45.333334,58 60,55.3332 60,47.3334 60,39.3334 59.952,25.1732 53.661454,16.9662 50.06496,12.2738 45.7252,9.3056 39.583334,8.0416 L 38,5 34.666666,6.2 Z" style="fill:#81b427"/>
 <path d="m25.388962 46.1768c1.36395 2.3624 3.883152 3.8192 6.611038 3.8232 2.727886 0 5.247088-1.4608 6.611038-3.8232h-6.611038z" style="fill:#86572f"/>
 <path d="m32.000002 38c-0.30634 2e-4 -0.602058 0.1276-0.818968 0.3566l-6.804868 6.3734c-0.728164 0.77-0.345204 3.0472 0.684954 3.0479l6.938882 1.2221 6.93888-1.2221c1.030146-7e-4 1.41312-2.2779 0.684954-3.0479l-6.80487-6.3734c-0.21691-0.2294-0.512626-0.3564-0.818964-0.3566z" style="opacity:.2"/>
 <path d="m32.000002 37c-0.30634 2e-4 -0.602058 0.1276-0.818968 0.3566l-6.804868 6.3734c-0.728164 0.77-0.345204 3.0472 0.684954 3.0479l6.938882 1.2221 6.93888-1.2221c1.030146-7e-4 1.41312-2.2779 0.684954-3.0479l-6.80487-6.3734c-0.21691-0.2294-0.512626-0.3564-0.818964-0.3566z" style="fill:#ffc12e"/>
 <path d="M 32,3 29.333984,6.1992188 26,5 24.416016,8.0410156 C 18.27415,9.3048156 13.934384,12.274597 10.337891,16.966797 4.047317,25.173797 4,39.333984 4,47.333984 c 0,0.02261 0.00367,0.04389 0.00391,0.06641 C 4.014844,39.276651 4.2721185,25.880517 10.337895,17.9668 13.934388,13.2746 18.274154,10.304819 24.41602,9.0410186 L 26,6 29.333984,7.1992188 32,4 34.666016,7.1992188 38,6 39.583984,9.0410156 c 6.141866,1.2640004 10.481631,4.2333814 14.078125,8.9257814 6.06575,7.913717 6.323049,21.309851 6.333985,29.433594 2.34e-4,-0.02252 0.0039,-0.0438 0.0039,-0.06641 0,-8 -0.04734,-22.160187 -6.337891,-30.367187 C 50.065615,12.274397 45.72585,9.3050156 39.583984,8.0410156 L 38,5 34.666016,6.1992188 32,3 Z" style="fill:#ffffff;opacity:.2"/>
 <path d="m32 37c-0.30634 2e-4 -0.601449 0.128422-0.818359 0.357422l-6.804688 6.373047c-0.349767 0.369862-0.439675 1.086394-0.328125 1.732422 0.05533-0.292175 0.159876-0.554506 0.328125-0.732422l6.804688-6.373047c0.21691-0.229 0.512019-0.357222 0.818359-0.357422 0.306338 2e-4 0.601449 0.128022 0.818359 0.357422l6.804688 6.373047c0.16825 0.177916 0.272796 0.440247 0.328125 0.732422 0.111552-0.646028 0.02164-1.36256-0.328125-1.732422l-6.804688-6.373047c-0.21691-0.2294-0.512021-0.357222-0.818359-0.357422z" style="fill:#ffffff;opacity:.2"/>
 <circle cx="46" cy="33" r="6" style="opacity:.2"/>
 <circle cx="46" cy="32" r="6" style="fill:#ffffff"/>
 <path d="m 18,30.000141 a 6,6 0 0 0 -6,6 A 6,6 0 0 0 12.197266,37.506 6,6 0 0 1 18,33.000141 6,6 0 0 1 23.802734,37.494282 6,6 0 0 0 24,36.000141 a 6,6 0 0 0 -6,-6 z" style="opacity:.2"/>
 <path d="m 18,29.000141 a 6,6 0 0 0 -6,6 A 6,6 0 0 0 12.197266,36.506 6,6 0 0 1 18,32.000141 6,6 0 0 1 23.802734,36.494282 6,6 0 0 0 24,35.000141 a 6,6 0 0 0 -6,-6 z" style="fill:#ffffff"/>
 <circle cx="46" cy="32" r="4" style="fill:#3f3f3f"/>
</svg>

<svg xmlns="http://www.w3.org/2000/svg" width="64" height="64" version="1.1" viewBox="0 0 64 64">
 <path style="opacity:0.2" d="M 32,4 29.333334,7.2 26,6 24.416666,9.0418 C 18.2748,10.3056 13.93504,13.274 10.338547,17.9662 4.0479734,26.1732 4,40.3334 4,48.3334 4,56.3332 18.666666,59 32,59 45.333334,59 60,56.3332 60,48.3334 60,40.3334 59.952,26.1732 53.661454,17.9662 50.06496,13.2738 45.7252,10.3056 39.583334,9.0416 L 38,6 34.666666,7.2 Z"/>
 <path d="M 32,3 29.333334,6.2 26,5 24.416666,8.0418 C 18.2748,9.3056 13.93504,12.274 10.338547,16.9662 4.0479734,25.1732 4,39.3334 4,47.3334 4,55.3332 18.666666,58 32,58 45.333334,58 60,55.3332 60,47.3334 60,39.3334 59.952,25.1732 53.661454,16.9662 50.06496,12.2738 45.7252,9.3056 39.583334,8.0416 L 38,5 34.666666,6.2 Z" style="fill:#81b427"/>
 <path d="M 25.388962,46.1768 C 26.752912,48.5392 29.272114,49.996 32,50 c 2.727886,0 5.247088,-1.4608 6.611038,-3.8232 L 32,46.1768 Z" style="fill:#86572f"/>
 <path style="opacity:0.2" d="m 32.000002,38 c -0.30634,2e-4 -0.602058,0.1276 -0.818968,0.3566 L 24.376166,44.73 c -0.728164,0.77 -0.345204,3.0472 0.684954,3.0479 L 32.000002,49 l 6.93888,-1.2221 c 1.030146,-7e-4 1.41312,-2.2779 0.684954,-3.0479 l -6.80487,-6.3734 C 32.602056,38.1272 32.30634,38.0002 32.000002,38 Z"/>
 <path d="m 32.000002,37 c -0.30634,2e-4 -0.602058,0.1276 -0.818968,0.3566 L 24.376166,43.73 c -0.728164,0.77 -0.345204,3.0472 0.684954,3.0479 L 32.000002,48 l 6.93888,-1.2221 c 1.030146,-7e-4 1.41312,-2.2779 0.684954,-3.0479 l -6.80487,-6.3734 C 32.602056,37.1272 32.30634,37.0002 32.000002,37 Z" style="fill:#ffc12e"/>
 <path d="M 32,3 29.333984,6.1992188 26,5 24.416016,8.0410156 C 18.27415,9.3048156 13.934384,12.274597 10.337891,16.966797 4.047317,25.173797 4,39.333984 4,47.333984 c 0,0.02261 0.00367,0.04389 0.00391,0.06641 C 4.014844,39.276651 4.2721185,25.880517 10.337895,17.9668 13.934388,13.2746 18.274154,10.304819 24.41602,9.0410186 L 26,6 29.333984,7.1992188 32,4 34.666016,7.1992188 38,6 39.583984,9.0410156 c 6.141866,1.2640004 10.481631,4.2333814 14.078125,8.9257814 6.06575,7.913717 6.323049,21.309851 6.333985,29.433594 2.34e-4,-0.02252 0.0039,-0.0438 0.0039,-0.06641 0,-8 -0.04734,-22.160187 -6.337891,-30.367187 C 50.065615,12.274397 45.72585,9.3050156 39.583984,8.0410156 L 38,5 34.666016,6.1992188 32,3 Z" style="opacity:0.2;fill:#ffffff"/>
 <path d="m 32,37 c -0.30634,2e-4 -0.601449,0.128422 -0.818359,0.357422 l -6.804688,6.373047 c -0.349767,0.369862 -0.439675,1.086394 -0.328125,1.732422 0.05533,-0.292175 0.159876,-0.554506 0.328125,-0.732422 l 6.804688,-6.373047 C 31.398551,38.128422 31.69366,38.0002 32,38 c 0.306338,2e-4 0.601449,0.128022 0.818359,0.357422 l 6.804688,6.373047 c 0.16825,0.177916 0.272796,0.440247 0.328125,0.732422 0.111552,-0.646028 0.02164,-1.36256 -0.328125,-1.732422 L 32.818359,37.357422 C 32.601449,37.128022 32.306338,37.0002 32,37 Z" style="opacity:0.2;fill:#ffffff"/>
 <circle cx="46" cy="33" r="6" style="opacity:0.2"/>
 <circle style="fill:#ffffff" cx="46" cy="32" r="6"/>
 <path d="m 18,30.000141 a 6,6 0 0 0 -6,6 A 6,6 0 0 0 12.197266,37.506 6,6 0 0 1 18,33.000141 6,6 0 0 1 23.802734,37.494282 6,6 0 0 0 24,36.000141 a 6,6 0 0 0 -6,-6 z" style="opacity:0.2"/>
 <path style="fill:#ffffff" d="m 18,29.000141 a 6,6 0 0 0 -6,6 A 6,6 0 0 0 12.197266,36.506 6,6 0 0 1 18,32.000141 6,6 0 0 1 23.802734,36.494282 6,6 0 0 0 24,35.000141 a 6,6 0 0 0 -6,-6 z"/>
 <circle cx="46" cy="32" r="4" style="fill:#3f3f3f"/>
</svg>
